app/assets/icons/caret-right.svg

<svg height="11" viewBox="0 0 6 11" width="6" xmlns="http://www.w3.org/2000/svg">
  <path
    d="m.853506.146465 5.000004 5.000005c.04648.04643.08336.10158.10853.16228.02516.06069.03811.12576.03811.19147 0 .0657-.01295.13077-.03811.19147-.02517.06069-.06205.11584-.10853.16228l-5.000004 5.00003c-.069927.07-.159054.1177-.256097.137-.097042.0193-.197637.0094-.289048-.0285-.091412-.0378-.16953-.102-.2244652-.1843-.0549354-.0823-.08421767-.179-.08413981-.278l-.00000043-9.999984c-.00007788-.098949.02920444-.195695.08413984-.277992.0549356-.082297.1330536-.1464431.2244646-.1843193.091412-.03787611.192007-.04777907.289049-.02845381.097042.01932521.186169.06700801.256097.13701411z"
    fill="currentColor" />
</svg>

<svg width="6" height="11" viewBox="0 0 6 11" fill="none" xmlns="http://www.w3.org/2000/svg">
  <path
    d="M0.853445 0.146465L5.85344 5.14647C5.89993 5.1929 5.93681 5.24805 5.96197 5.30875C5.98714 5.36944 6.00009 5.43451 6.00009 5.50022C6.00009 5.56592 5.98714 5.63099 5.96197 5.69169C5.93681 5.75238 5.89993 5.80753 5.85344 5.85397L0.853445 10.854C0.783517 10.924 0.694391 10.9717 0.597348 10.991C0.500306 11.0103 0.399711 11.0004 0.3083 10.9625C0.216888 10.9247 0.13877 10.8605 0.0838348 10.7782C0.0288994 10.6959 -0.000382907 10.5992 -0.000305043 10.5002L-0.00030548 0.500216C-0.000383353 0.401267 0.028899 0.304521 0.0838343 0.222224C0.13877 0.139927 0.216888 0.0757809 0.308299 0.0379047C0.399711 2.85927e-05 0.500306 -0.00987437 0.597348 0.00945089C0.69439 0.0287761 0.783517 0.0764589 0.853445 0.146465Z"
    fill="currentColor" />
</svg>
